Komodo/status/24/weather-overcast.svg

<?xml version="1.0" encoding="UTF-8" standalone="no"?>
<!-- Created with Inkscape (http://www.inkscape.org/) -->
<svg
   xmlns:svg="http://www.w3.org/2000/svg"
   xmlns="http://www.w3.org/2000/svg"
   version="1.0"
   width="24"
   height="24"
   id="svg3187">
  <defs
     id="defs3189" />
  <path
     d="M 12.024667,4.5001413 C 10.877646,4.4891214 9.8257265,5.1202569 9.2450131,5.9613085 C 8.2208995,5.3481856 6.716566,5.8835588 6.3343475,6.8822528 C 6.0219781,7.3539044 6.5723366,7.9758134 5.8238364,8.1619177 C 4.5425712,8.9854487 4.1195154,10.633303 4.8733701,11.857349 C 5.4776969,12.926543 6.8486774,13.580927 8.1997262,13.491938 C 10.246391,13.486315 12.293696,13.50333 14.33995,13.483174 C 16.036583,13.399807 17.489962,12.061095 17.497328,10.571846 C 17.554072,9.3887867 16.672934,8.2608827 15.44578,7.7971342 C 15.482745,6.2830866 14.22979,4.7341012 12.460978,4.5268572 C 12.316493,4.5090186 12.170577,4.5001338 12.024667,4.5001413 z M 14.024748,10.500142 C 12.877727,10.489122 11.825808,11.120258 11.245094,11.961309 C 10.220981,11.348186 8.7166471,11.88356 8.3344286,12.882254 C 8.0220592,13.353905 8.5724177,13.975814 7.8239175,14.161919 C 6.5426522,14.98545 6.1195964,16.633304 6.8734511,17.85735 C 7.477778,18.926544 8.8487585,19.580928 10.199807,19.491939 C 12.246472,19.486316 14.293777,19.503331 16.340031,19.483175 C 18.036664,19.399808 19.490043,18.061096 19.497409,16.571847 C 19.554153,15.388788 18.673015,14.260884 17.445861,13.797135 C 17.482826,12.283087 16.229871,10.734102 14.461059,10.526858 C 14.316574,10.509019 14.170658,10.500134 14.024748,10.500142 z"
     id="path2395"
     style="opacity:0.6;fill:#3a3935;fill-opacity:1;fill-rule:nonzero;stroke:#3a3935;stroke-width:0.99999982;stroke-linecap:round;stroke-linejoin:miter;marker:none;marker-start:none;marker-mid:none;marker-end:none;stroke-miterlimit:4;stroke-dasharray:none;stroke-dashoffset:0;stroke-opacity:1;visibility:visible;display:inline;overflow:visible;enable-background:accumulate" />
  <path
     d="M 12,4.9999992 C 10.873696,4.9999992 9.9192139,5.5937608 9.40625,6.4687492 C 9.1174033,6.2628033 8.74855,6.1562492 8.34375,6.1562492 C 7.4237499,6.1562493 6.6562501,6.7739278 6.65625,7.5624992 C 6.6562501,7.7395998 6.7124231,7.9059544 6.78125,8.0624992 C 5.7349115,8.4632313 5,9.3883752 5,10.437499 C 5,11.7684 6.1786846,12.831357 7.6875,12.96875 C 7.9956974,11.829407 9.1473135,11.093749 10.34375,11.09375 C 10.616207,11.09375 10.861679,11.242098 11.125,11.3125 C 11.864399,10.528127 12.826494,9.9374992 14,9.9374992 C 15.131647,9.9374992 16.146962,10.40808 16.875,11.15625 C 16.954138,10.925081 17,10.69119 17,10.437499 C 17,9.3091154 16.143764,8.3479792 14.96875,7.9999992 C 14.97136,7.9511844 15,7.8931789 15,7.8437492 C 15,6.2666063 13.656,4.9999992 12,4.9999992 z M 14,10.999999 C 12.873696,10.999999 11.908797,11.607154 11.395833,12.482142 C 11.106987,12.276196 10.738133,12.142857 10.333333,12.142857 C 9.4133334,12.142857 8.6666667,12.782857 8.6666666,13.571428 C 8.6666666,13.748529 8.7020064,13.914882 8.7708333,14.071427 C 7.7244948,14.472159 7,15.379446 7,16.42857 C 7,17.853141 8.338,19 10,19 L 16,19 C 17.662,19 19,17.853141 19,16.42857 C 19,15.300186 18.15418,14.34798 16.979166,14 C 16.981776,13.951185 17,13.906572 17,13.857142 C 17,12.28 15.656,10.999999 14,10.999999 z"
     id="path2397"
     style="fill:#eae3d1;fill-opacity:1;fill-rule:evenodd;stroke:none;stroke-width:4;stroke-linecap:butt;stroke-linejoin:miter;marker:none;marker-start:none;marker-mid:none;marker-end:none;stroke-miterlimit:4;stroke-dasharray:none;stroke-dashoffset:0;stroke-opacity:1;visibility:visible;display:inline;overflow:visible;enable-background:accumulate" />
</svg>

<?xml version="1.0" encoding="UTF-8" standalone="no"?>
<!-- Created with Inkscape (http://www.inkscape.org/) -->
<svg id="svg3187" xmlns="http://www.w3.org/2000/svg" height="24" width="24" version="1.0">
 <path id="path2395" style="opacity:.6;stroke:#3a3935;stroke-linecap:round;fill:#3a3935" d="m12.025 4.5001c-1.147-0.011-2.1993 0.6202-2.78 1.4612-1.0241-0.6131-2.5284-0.0777-2.9107 0.921-0.3123 0.4716 0.238 1.0935-0.5105 1.2796-1.2812 0.8235-1.7043 2.4711-0.9504 3.6951 0.6043 1.07 1.9753 1.724 3.3263 1.635 2.0463-0.006 4.0943 0.011 6.1403-0.009 1.697-0.083 3.15-1.422 3.157-2.911 0.057-1.1832-0.824-2.3111-2.051-2.7749 0.037-1.514-1.216-3.063-2.985-3.2702-0.145-0.0179-0.29-0.0268-0.436-0.0268zm2 5.9999c-1.147-0.011-2.199 0.62-2.78 1.461-1.024-0.613-2.5284-0.077-2.9106 0.921-0.3123 0.472 0.238 1.094-0.5105 1.28-1.2812 0.823-1.7043 2.471-0.9504 3.695 0.6043 1.07 1.9753 1.724 3.3265 1.635 2.046-0.006 4.094 0.011 6.14-0.009 1.697-0.083 3.15-1.422 3.157-2.911 0.057-1.183-0.824-2.311-2.051-2.775 0.037-1.514-1.216-3.063-2.985-3.27-0.144-0.018-0.29-0.027-0.436-0.027z"/>
 <path id="path2397" style="fill-rule:evenodd;fill:#eae3d1" d="m12 5c-1.126 0-2.0808 0.5938-2.5938 1.4687-0.2888-0.2059-0.6576-0.3125-1.0624-0.3125-0.9201 0-1.6875 0.6177-1.6876 1.4063 0.0001 0.1771 0.0562 0.3435 0.125 0.5-1.0463 0.4007-1.7812 1.3259-1.7812 2.3745 0 1.331 1.1787 2.394 2.6875 2.532 0.3082-1.14 1.4598-1.875 2.6565-1.875 0.272 0 0.518 0.148 0.781 0.218 0.739-0.784 1.701-1.3745 2.875-1.3745 1.132 0 2.147 0.4705 2.875 1.2185 0.079-0.231 0.125-0.465 0.125-0.719 0-1.1279-0.856-2.089-2.031-2.437 0.002-0.0488 0.031-0.1068 0.031-0.1563 0-1.5771-1.344-2.8437-3-2.8437zm2 6c-1.126 0-2.091 0.607-2.604 1.482-0.289-0.206-0.658-0.339-1.063-0.339-0.9197 0-1.6663 0.64-1.6663 1.428 0 0.178 0.0353 0.344 0.1041 0.5-1.0463 0.401-1.7708 1.308-1.7708 2.358 0 1.424 1.338 2.571 3 2.571h6c1.662 0 3-1.147 3-2.571 0-1.129-0.846-2.081-2.021-2.429 0.003-0.049 0.021-0.093 0.021-0.143 0-1.577-1.344-2.857-3-2.857z"/>
</svg>
